svgs/regular/scanner-keyboard.svg

<svg xmlns="http://www.w3.org/2000/svg" viewBox="0 0 512 512"><!-- Font Awesome Pro 6.0.0-alpha2 by @fontawesome - https://fontawesome.com License - https://fontawesome.com/license (Commercial License) --><path d="M256 384H208C199.164 384 192 391.164 192 400V416C192 424.836 199.164 432 208 432H256C264.838 432 272 424.836 272 416V400C272 391.164 264.838 384 256 384ZM256 304H208C199.164 304 192 311.164 192 320V336C192 344.836 199.164 352 208 352H256C264.838 352 272 344.836 272 336V320C272 311.164 264.838 304 256 304ZM144 304H96C87.164 304 80 311.164 80 320V336C80 344.836 87.164 352 96 352H144C152.838 352 160 344.836 160 336V320C160 311.164 152.838 304 144 304ZM144 384H96C87.164 384 80 391.164 80 400V416C80 424.836 87.164 432 96 432H144C152.838 432 160 424.836 160 416V400C160 391.164 152.838 384 144 384ZM256 16C256 7.199 248.801 0 240 0S224 7.199 224 16V64H256V16ZM192 16C192 7.199 184.801 0 176 0H144C135.201 0 128 7.199 128 16V64H192V16ZM496 0H464C455.201 0 448 7.199 448 16V272C448 280.801 455.201 288 464 288H496C504.801 288 512 280.801 512 272V16C512 7.199 504.801 0 496 0ZM256 176H96C87.164 176 80 183.164 80 192V240C80 248.836 87.164 256 96 256H256C264.838 256 272 248.836 272 240V192C272 183.164 264.838 176 256 176ZM400 0C391.199 0 384 7.199 384 16V272C384 280.799 391.199 288 400 288S416 280.799 416 272V16C416 7.199 408.801 0 400 0ZM288 96H64C28.654 96 0 124.654 0 160V448C0 483.346 28.654 512 64 512H288C323.348 512 352 483.346 352 448V160C352 124.654 323.348 96 288 96ZM304 448C304 456.822 296.822 464 288 464H64C55.178 464 48 456.822 48 448V160C48 151.178 55.178 144 64 144H288C296.822 144 304 151.178 304 160V448ZM336 0H304C295.201 0 288 7.199 288 16V64H352V16C352 7.199 344.801 0 336 0Z"/></svg>

<svg xmlns="http://www.w3.org/2000/svg" viewBox="0 0 512 512"><!--! Font Awesome Pro 6.3.0 by @fontawesome - https://fontawesome.com License - https://fontawesome.com/license (Commercial License) Copyright 2023 Fonticons, Inc. --><path d="M128 24V64h48V24c0-13.3-10.7-24-24-24s-24 10.7-24 24zm176 0V64h48V24c0-13.3-10.7-24-24-24s-24 10.7-24 24zM240 0c-8.8 0-16 7.2-16 16V64h32V16c0-8.8-7.2-16-16-16zM384 16V272c0 8.8 7.2 16 16 16s16-7.2 16-16V16c0-8.8-7.2-16-16-16s-16 7.2-16 16zM488 0c-13.3 0-24 10.7-24 24V264c0 13.3 10.7 24 24 24s24-10.7 24-24V24c0-13.3-10.7-24-24-24zM64 144H288c8.8 0 16 7.2 16 16V448c0 8.8-7.2 16-16 16H64c-8.8 0-16-7.2-16-16V160c0-8.8 7.2-16 16-16zm0-48C28.7 96 0 124.7 0 160V448c0 35.3 28.7 64 64 64H288c35.3 0 64-28.7 64-64V160c0-35.3-28.7-64-64-64H64zm40 80c-13.3 0-24 10.7-24 24v32c0 13.3 10.7 24 24 24H248c13.3 0 24-10.7 24-24V200c0-13.3-10.7-24-24-24H104zM96 304c-8.8 0-16 7.2-16 16v16c0 8.8 7.2 16 16 16h48c8.8 0 16-7.2 16-16V320c0-8.8-7.2-16-16-16H96zM80 400v16c0 8.8 7.2 16 16 16h48c8.8 0 16-7.2 16-16V400c0-8.8-7.2-16-16-16H96c-8.8 0-16 7.2-16 16zm128-96c-8.8 0-16 7.2-16 16v16c0 8.8 7.2 16 16 16h48c8.8 0 16-7.2 16-16V320c0-8.8-7.2-16-16-16H208zm-16 96v16c0 8.8 7.2 16 16 16h48c8.8 0 16-7.2 16-16V400c0-8.8-7.2-16-16-16H208c-8.8 0-16 7.2-16 16z"/></svg>
